X:205
T:The Blackthorn Stick
D:Jimmy Shand 78: Beltona BL 2229 (1935)
Z:Nigel Gatherer <gatherer:ARGONET.CO.UK> irtrad-l 2000-12-24
M:6/8
L:1/8
K:A
e|aga faf|ecA BAF|EAA GAB|cAc B2 e|aga baf|ecA BAF|
EAA GAB|cAA A2::e|cee aee|fee aee|cee agf|
edc B2 e|aga baf|ecA BAF|EAA GAB|cAA A2:|]
